X:116
T:Princess Royal
N:as played by Mary Motley
M:4/4
L:1/8
K:G
|:dc|B2A2G2dc|B2A2G2d2|e3d cd e2|d3c B2dd|
c2B2A2G2|FGAF D2dc|BA G2A2F2|G4G2:|
|:d2|e3d e3d|e2f2g3g|g2f2e2d2|BA G2A4|
G2G2A4|BA G2g3g|g2d2e4|d2B2c3c|
c2B2A2G2|FGAF D2dc|BA G2A2F2|G4G2:|
